resources/svg/folder-2-fill.svg

<svg fill="currentColor" viewBox="0 0 24 24" xmlns="http://www.w3.org/2000/svg"><path d="M22 11V20C22 20.5523 21.5523 21 21 21H3C2.44772 21 2 20.5523 2 20V11H22ZM22 9H2V4C2 3.44772 2.44772 3 3 3H10.4142L12.4142 5H21C21.5523 5 22 5.44772 22 6V9Z"/></svg>

<svg xmlns="http://www.w3.org/2000/svg" viewBox="0 0 24 24" fill="currentColor">
    <g>
        <path fill="none" d="M0 0h24v24H0z"/>
        <path d="M22 11v9a1 1 0 0 1-1 1H3a1 1 0 0 1-1-1v-9h20zm0-2H2V4a1 1 0 0 1 1-1h7.414l2 2H21a1 1 0 0 1 1 1v3z"/>
    </g>
</svg>
